src/fileIcons/FileIconMov/FileIconMov_size_s.svg

<svg viewBox="0 0 21 28" xmlns="http://www.w3.org/2000/svg">
  <path
    d="M19.6 0H1.4C0.626801 0 0 0.626801 0 1.4V26.6C0 27.3732 0.626801 28 1.4 28H19.6C20.3732 28 21 27.3732 21 26.6V1.4C21 0.626801 20.3732 0 19.6 0Z"
  />
  <path
    d="M6 4.38195C5.73462 4.14443 5.38418 4 5 4C4.74718 4 4.50897 4.06255 4.3 4.17301V4H3.5V9H4.5V5.5C4.5 5.22386 4.72386 5 5 5C5.27614 5 5.5 5.22386 5.5 5.5V9H6.5V5.5C6.5 5.22386 6.72386 5 7 5C7.27614 5 7.5 5.22386 7.5 5.5V9H8.5V5.41L8.49721 5.40771C8.44953 4.62226 7.79744 4 7 4C6.61582 4 6.26538 4.14443 6 4.38195Z"
    fill="#fff"
  />
  <path
    fill-rule="evenodd"
    clip-rule="evenodd"
    d="M13.5 7.4C13.5 7.96 13.36 8.36667 13.08 8.62C12.8067 8.87333 12.38 9 11.8 9L11.2 9C10.62 9 10.19 8.87333 9.91 8.62C9.63667 8.36667 9.5 7.96 9.5 7.4V5.6C9.5 5.04 9.63667 4.63333 9.91 4.38C10.19 4.12667 10.62 4 11.2 4H11.8C12.38 4 12.8067 4.12667 13.08 4.38C13.36 4.63333 13.5 5.04 13.5 5.6V7.4ZM12.5 5.65C12.5 5.44333 12.4367 5.28333 12.31 5.17C12.1833 5.05667 11.9967 5 11.75 5H11.25C11.0033 5 10.8167 5.05667 10.69 5.17C10.5633 5.28333 10.5 5.44333 10.5 5.65V7.35C10.5 7.55667 10.5633 7.71667 10.69 7.83C10.8167 7.94333 11.0033 8 11.25 8H11.75C11.9967 8 12.1833 7.94333 12.31 7.83C12.4367 7.71667 12.5 7.55667 12.5 7.35V5.65Z"
    fill="#fff"
  />
  <path d="M14.5 4H15.5V7H16.5V4H17.5V7L16.5 9H15.5L14.5 7V4Z" fill="#fff" />
  <path
    opacity="0.6"
    fill-rule="evenodd"
    clip-rule="evenodd"
    d="M17 12V25H4V12H17ZM14 24H16V22H14V24ZM14 21H16V19H14V21ZM13 19V24.0556H8V19H13ZM13 18H8V12.9444H13V18ZM14 18H16V16H14V18ZM14 15H16V13H14V15ZM7 16V18H5V16H7ZM5 21V19H7V21H5ZM5 22V24H7V22H5ZM7 15V13H5V15H7Z"
    fill="#fff"
  />
</svg>

<svg viewBox="0 0 21 28" xmlns="http://www.w3.org/2000/svg">
  <path
    d="M19.6 0H1.4A1.4 1.4 0 000 1.4v25.2A1.4 1.4 0 001.4 28h18.2a1.4 1.4 0 001.4-1.4V1.4A1.4 1.4 0 0019.6 0z"
  />
  <path
    fill="#fff"
    d="M6.5 4.382a1.494 1.494 0 00-1.7-.209V4H4v5h1V5.5a.5.5 0 011 0V9h1V5.5a.5.5 0 011 0V9h1V5.41l-.003-.002A1.5 1.5 0 006.5 4.382z"
  />
  <path
    fill="#fff"
    d="M14 7.4c0 .56-.14.967-.42 1.22-.273.253-.7.38-1.28.38h-.6c-.58 0-1.01-.127-1.29-.38-.273-.253-.41-.66-.41-1.22V5.6c0-.56.137-.967.41-1.22.28-.253.71-.38 1.29-.38h.6c.58 0 1.007.127 1.28.38.28.253.42.66.42 1.22v1.8zm-1-1.75c0-.207-.063-.367-.19-.48-.127-.113-.313-.17-.56-.17h-.5c-.247 0-.433.057-.56.17-.127.113-.19.273-.19.48v1.7c0 .207.063.367.19.48.127.113.313.17.56.17h.5c.247 0 .433-.057.56-.17.127-.113.19-.273.19-.48v-1.7z"
    fill-rule="evenodd"
    clip-rule="evenodd"
  />
  <path fill="#fff" d="M15 4h1v3h1V4h1v3l-1 2h-1l-1-2V4z" />
  <path
    fill="#fff"
    d="M17 12v13H4V12h13zm-3 12h2v-2h-2v2zm0-3h2v-2h-2v2zm-1-2v5.056H8V19h5zm0-1H8v-5.056h5V18zm1 0h2v-2h-2v2zm0-3h2v-2h-2v2zm-7 1v2H5v-2h2zm-2 5v-2h2v2H5zm0 1v2h2v-2H5zm2-7v-2H5v2h2z"
    fill-rule="evenodd"
    clip-rule="evenodd"
    opacity=".7"
  />
</svg>
